-- d1 $ n "c(3,8) a f e" # sound "supermandolin" # legato 4
-- mini notation ("content inside the quotations") of a euclidian sequence

d1 $ jux rev $ off 0.25 (|+ n 12) $ off 0.125 (|+ n 7) $ n "<c(3,8) a*2 f(3,8,2) [~ e*2]>" # sound "supervibe" # legato 4 # gain 0.5
-- canon (one melody following itself) : (|+ n 7)

d2 $ chunk 4 (hurry 2) $ every 3 (# crush 2) $ chunk 4 (hurry 2) $ sound "drump clap:4 [~ snare:4] bd" # gain 0.7

d3 $ jux rev $ iter 4 $ loopAt 1 $ chop 8 $ sound "super808" # gain 0.8
-- d1 $ sound "bd sn"

d4 $ jux rev $ off 0.25 (|+ n 12) $ off 0.125 (|+ n 7) $ n "<c(3,8) a*2 f(3,8,2) [~ e*2]>" # sound "superhammond" # legato 4 # gain 0.8


hush --stops sound
